public/images/projectapp/03.sketch.svg

<svg viewBox="0 0 48.19 48.19" xmlns="http://www.w3.org/2000/svg"><rect fill="#a7c447" height="45.04" rx="22.52" width="45.04" x="1.63" y="1.57"/><g fill="#1d1d1b"><path d="m37.75 15.48a.24.24 0 0 0 -.33.06l-3.42 4.94v-10.19a.24.24 0 0 0 -.24-.24h-19.76a.24.24 0 0 0 -.24.24v28.36a.24.24 0 0 0 .24.24h19.73a.24.24 0 0 0 .24-.24v-13.65c.09-.14 5.63-8 5.59-8.13a15 15 0 0 0 -1.81-1.39zm-8.88 16-.87.52c-.11-.09-.54-.45-.65-.52l.2-1c14.67-21 2-2.91 9.37-13.41l1.33.92zm-14.62 7v-27.96h19.24v10.64c-7.49 10.74-6.26 8.47-6.94 11.84a.24.24 0 0 0 .36.25c3-1.85 1.56-.38 6.58-7.57v12.73zm24.26-20.84-1.33-.93.49-.7 1.33.93z"/><path d="m17 32.15c0 5.78 8.76 5.78 8.76 0s-8.76-5.79-8.76 0zm4.38 3.9c-5.16 0-5.16-7.81 0-7.81s5.18 7.81.02 7.81z"/><path d="m31.42 18.67a1.23 1.23 0 0 0 -2.46 0 1.23 1.23 0 0 0 2.46 0zm-.47 0a.76.76 0 0 1 -1.52 0 .76.76 0 0 1 1.57 0z"/><path d="m19.5 26.34c.08 0 8.71-3.53 8.78-3.56a.24.24 0 0 0 .13-.31c-.06-.14-3.85-9.56-4-9.61s-8.72 3.48-8.86 3.53a.24.24 0 0 0 -.13.31l3.86 9.49a.25.25 0 0 0 .22.15zm4.69-13 3.69 9-8.25 3.36-3.68-9z"/></g></svg>

<svg id="Layer_1" data-name="Layer 1" xmlns="http://www.w3.org/2000/svg" viewBox="0 0 48.19 48.19">
  <defs>
    <style>
      .cls-1 {
        fill: #a7c447;
      }

      .cls-2 {
        fill: #1d1d1b;
      }
    </style>
  </defs>
  <title>sketch</title>
  <g>
    <rect class="cls-1" x="1.63" y="1.57" width="45.04" height="45.04" rx="22.52"/>
    <g>
      <path class="cls-2" d="M37.75,15.48a.24.24,0,0,0-.33.06L34,20.48V10.29a.24.24,0,0,0-.24-.24H14a.24.24,0,0,0-.24.24V38.65a.24.24,0,0,0,.24.24H33.73a.24.24,0,0,0,.24-.24V25c.09-.14,5.63-8,5.59-8.13A15,15,0,0,0,37.75,15.48Zm-8.88,16L28,32c-.11-.09-.54-.45-.65-.52l.2-1c14.67-21,2-2.91,9.37-13.41l1.33.92Zm-14.62,7V10.52H33.49V21.16C26,31.9,27.23,29.63,26.55,33a.24.24,0,0,0,.36.25c3-1.85,1.56-.38,6.58-7.57V38.41ZM38.51,17.64l-1.33-.93.49-.7,1.33.93Z"/>
      <path class="cls-2" d="M17,32.15c0,5.78,8.76,5.78,8.76,0S17,26.36,17,32.15Zm4.38,3.9c-5.16,0-5.16-7.81,0-7.81S26.56,36.05,21.4,36.05Z"/>
      <path class="cls-2" d="M31.42,18.67a1.23,1.23,0,0,0-2.46,0A1.23,1.23,0,0,0,31.42,18.67Zm-.47,0a.76.76,0,0,1-1.52,0A.76.76,0,0,1,31,18.67Z"/>
      <path class="cls-2" d="M19.5,26.34c.08,0,8.71-3.53,8.78-3.56a.24.24,0,0,0,.13-.31c-.06-.14-3.85-9.56-4-9.61s-8.72,3.48-8.86,3.53a.24.24,0,0,0-.13.31l3.86,9.49A.25.25,0,0,0,19.5,26.34Zm4.69-13,3.69,9-8.25,3.36-3.68-9Z"/>
    </g>
  </g>
</svg>
